X: 38392
T: Star Of Munster, The
R: reel
M: 4/4
K: Adorian
~c3A BAGB|AdBA GEDG|EA~A2 cBcd|eaae gedB|
~c3A BAGB|AdBA GEDG|EA~A2 cBcd|eddB A3B:|
ea~a2 ageg|a2ba agef|g2fa gd~d2|gaba gedg|
ea~a2 ageg|a2ba agef|~g3e a2ga|1 bgaf gedg:|2 bgaf gedg||

